src/components/Icon/svg-icon/main/restore.svg

<svg xmlns="http://www.w3.org/2000/svg" width="24" height="24"><path fill="#677078" d="M13 3a9 9 0 00-9 9H1l3.89 3.89.07.14L9 12H6c0-3.87 3.13-7 7-7s7 3.13 7 7-3.13 7-7 7c-1.93 0-3.68-.79-4.94-2.06l-1.42 1.42A8.954 8.954 0 0013 21a9 9 0 000-18zm-1 5v5l4.28 2.54.72-1.21-3.5-2.08V8H12z"/></svg>

<svg xmlns="http://www.w3.org/2000/svg" width="24" height="24" viewBox="0 0 24 24">
  <path fill="#677078" d="M13,3 C8.03,3 4,7.03 4,12 L1,12 L4.89,15.89 L4.96,16.03 L9,12 L6,12 C6,8.13 9.13,5 13,5 C16.87,5 20,8.13 20,12 C20,15.87 16.87,19 13,19 C11.07,19 9.32,18.21 8.06,16.94 L6.64,18.36 C8.27,19.99 10.51,21 13,21 C17.97,21 22,16.97 22,12 C22,7.03 17.97,3 13,3 Z M12,8 L12,13 L16.28,15.54 L17,14.33 L13.5,12.25 L13.5,8 L12,8 Z"/>
</svg>
